X:1
T:Dawn Over the Tiber - Flute
M:4/4
L:1/8
Q:1/4=95
K:Dm
%%MIDI program 73
% Bars 1-25: Haunting, sparse melody emerging from mist
% Lots of space, ancient modal feel
z8 | z8 | z8 | z8 |
z4 D4 | F6 E2 | D8 | z8 |
z4 A,4 | D4 F4 | E6 D2 | C8 |
z8 | z4 D4 | F4 G4 | A6 G2 |
F8 | z8 | E4 D4 | C4 D4 |
z8 | z4 D4 | A,4 D4 | F6 E2 |
D8 |
